imgs/star.svg

<svg width="12" height="12" viewBox="0 0 12 12" fill="none" xmlns="http://www.w3.org/2000/svg">
<path d="M11.3574 3.96854L8.12071 3.47584L6.67259 0.402532C6.41911 -0.134177 5.58069 -0.134177 5.32721 0.402532L3.87984 3.47584L0.642381 3.96854C0.0296859 4.06206 -0.218542 4.85415 0.226918 5.30992L2.56971 7.70193L2.01701 11.0801C1.91277 11.7198 2.55471 12.2109 3.10516 11.9084L5.9999 10.314L8.89539 11.9092C9.44134 12.2086 10.0885 11.7253 9.98354 11.0809L9.43084 7.70272L11.7736 5.31071C12.2183 4.85415 11.9701 4.06206 11.3574 3.96854Z" fill="#FD3E72"/>
</svg>

<svg width="12" height="12" fill="none" xmlns="http://www.w3.org/2000/svg"><path d="M11.357 3.969l-3.236-.493L6.673.403c-.254-.537-1.092-.537-1.346 0L3.88 3.476l-3.238.493c-.612.093-.86.885-.415 1.34L2.57 7.703l-.553 3.378c-.104.64.538 1.13 1.088.828L6 10.314l2.895 1.595c.546.3 1.194-.184 1.089-.828L9.43 7.703l2.343-2.392c.444-.457.196-1.249-.417-1.342z" fill="#FD3E72"/></svg>
